X:1
T:Fig for a kiss
T:The Old Dutch Churn
M:9/8
L:1/8
S:James Kelly workshop
Z:Foty, Caroline C. <FotyC@nasd.COM>
N:The c near the end may be c# instead.
R:slipjig
K:EDor
|: F \
|  G2B E2B {d}BAG | FGA D2A {B}AGF | G2B E2B {d}BAG |  BdB AGF E2  :|
f \
|  g2e g2e {f}edB | f2d {e}dcd fed | g2e g2e {f}edB | dBA ABd e2f |
|  g2e g2e {f}edB  | f2d {e}dcd fga | {ga}gfe fed ed=c | B/2c/2dB AGF E2 |]
